material/.icons/material/omega.svg

<svg xmlns="http://www.w3.org/2000/svg" viewBox="0 0 24 24"><path d="M19.15 19h-5.76v-2.13c2.11-1.62 3.2-3.63 3.2-6.03 0-1.5-.43-2.68-1.27-3.55C14.47 6.42 13.37 6 12.03 6c-1.35 0-2.46.42-3.32 1.3-.87.87-1.3 2.07-1.3 3.58 0 2.38 1.09 4.38 3.2 5.99V19H4.85v-2.13h3.56c-2.37-1.55-3.56-3.64-3.56-6.27 0-2.1.65-3.74 1.96-4.94 1.31-1.21 3.03-1.81 5.16-1.81 2.18 0 3.92.6 5.22 1.79 1.31 1.19 1.96 2.86 1.96 4.94 0 2.63-1.2 4.73-3.6 6.29h3.6V19z"/></svg>

<?xml version="1.0" encoding="UTF-8"?><!DOCTYPE svg PUBLIC "-//W3C//DTD SVG 1.1//EN" "http://www.w3.org/Graphics/SVG/1.1/DTD/svg11.dtd"><svg xmlns="http://www.w3.org/2000/svg" xmlns:xlink="http://www.w3.org/1999/xlink" version="1.1" id="mdi-omega" width="24" height="24" viewBox="0 0 24 24"><path d="M19.15,19H13.39V16.87C15.5,15.25 16.59,13.24 16.59,10.84C16.59,9.34 16.16,8.16 15.32,7.29C14.47,6.42 13.37,6 12.03,6C10.68,6 9.57,6.42 8.71,7.3C7.84,8.17 7.41,9.37 7.41,10.88C7.41,13.26 8.5,15.26 10.61,16.87V19H4.85V16.87H8.41C6.04,15.32 4.85,13.23 4.85,10.6C4.85,8.5 5.5,6.86 6.81,5.66C8.12,4.45 9.84,3.85 11.97,3.85C14.15,3.85 15.89,4.45 17.19,5.64C18.5,6.83 19.15,8.5 19.15,10.58C19.15,13.21 17.95,15.31 15.55,16.87H19.15V19Z" /></svg>
